**kern
*staff1
*solos[solo1,solo2,solo3]
=1-
*clefG2
*k[]
*F:
*M4/4
*>head1
{8f/L
8e/
8f/
8c/J
4r
8a/L
8a-/J
=2
8a/L
8c/J
8r
[8e/
8e/L]
8g/
8f/
8e/J
=3
8g/L
8f/
8a/
8b-/J
8a/L
8f/
8g/
8e-/J}
=4
8r
{8dd\
4r
8r
[8dd-\L
8dd-\]
8b-\J
=5
4.b\
8ff\
8r
8b\
[4b-\
=6
2b-\]}
{8a-/L
8f/
8g/
8f/J
=7
4cc\
8r
8a/
4b-\
8r
8g/
=8
4cc\
[4cc\
8cc\L]
8a\
8b-\
8cc\J
=9
8a/L
8g/
8f/
8e/J
4f/
8r
8cc\
=10
4b-\
8r
[8ff\
8ff\L]
8cc\
8ee\
8ff\J
=11
4r
8r
[8cc\
4.cc\]
8a/
=12
8b-/L
8a/
8f/
8d/J
8a/L
[8a/J
4a/]}
=13
8b-/L
8a/
8f/
8d/J
8a/L
[8g/J
4g/]
=14:|!
*>solo1
4f/
4r
8r
{16d-/LL
16c/J
8B/
8c/J
=15||
8e/L
8g/
8f/
8g/J
8a/L
8b-/
8cc/
8a/J
=16
8b-\L
16cc\L
16b-\J
8a\
8f\J
8g/L
[8e-/J
4e-/]}
=17
2r
4r
{16f/LL
16g/
16b-/
16dd/JJ
=18
8ff\
8r
8dd/L
8g/J
4r
16f/LL
16g/
16b-/
16dd/JJ
=19
4ff\
8dd-/L
8g/J}
2r
=20
8r
{8e/
12f/L
12a/
12cc/J
8ee\L
8ee-\
8dd\
8dd-\J
=21
8cc\L
8b-\J
24a/LL
24b-/
24a/JJ
8g/
8g-/L
8e-/
8c/
8c#/J
=22
8f/L
8A/J
12B-/L
12d/
12f/J
8a/L
8f/
8d/
8B-/J
=23
4g/
8cc/L
[8a-/J
4a-/]
8cc/L
[8an/J
=24
4a/]
8c/L
[8d/J
4d/]}
4r
=25
2r
4r
*>solo2
{8ff\L
8ee\J
=26
8ff\
8r
8cc\L
8b\J
4cc\
8a/L
8f/J
=27||
8b-\L
8cc\
8dd\
8cc\J
8r
8B/L
8c/
8b-/J
=28
8a-/L
8an/
8cc/
8a/J
8b-\L
16cc\L
16b-\J
8a\
8g\J
=29
8f/L
8e/
8e-/
8g/J
8d/L
8c/
8f/
8e-/J
=30
8d/L
8F/
8A-/
8B/J
4e/
8B/L
[8g/J
=31
4g/]
8r
[8f/
4f/]
8e/L
8c/J
=32
8d/L
[8A/J
2A/]}
4r
=33
2r
4r
{16g/LL
16a/
16b-/
16dd/JJ
=34
16ff\LL
16dd\
16ee-\
16een\JJ
16cc\LL
16cc#\
16dd\
16ccn\JJ
16b-/LL
16a/
16g/
16f/JJ
16e/LL
16g/
16b-/
16dd/JJ
=35
16cc/LL
16a/JJ
24b-\LL
24cc\
24b-\JJ
16a/LL
16f/
16d/
16B-/JJ
16g/LL
16a-/
16e/
16c/JJ
16c#/LL
16d/
16B-/
16G/JJ
=36
4c/}
4r
8r
{8B-/
16A/LL
16c/
16e/
16g/JJ
=37
4f/}
8r
{8c/
[4e/
16e/LL]
16g/
16b-/
16dd/JJ
=38
4cc\
8r
*>solo3
8b-\
8a/
4f/
[8bn\
=39||
8b\L]
8b-\J
24a-/LL
24b-/
24a-/JJ
8f/
8g/
4f/
[8e-/
=40
8e-/L]
[8c/J
4c/]}
2r
=41
4r
8r
{[8gg\
4gg\]
8ff\L
8ee-\J
=42
8dd\L
8cc\
8b-\
16cc\L
16b-\JJ
8a-/L
8f/J
4d/
=43
4r
8r
[8g/
8g/L]
8f/
8d-/
8B/J
=44
4c/}
4r
4r
8r
{16ee\LL
16ee-\JJ
=45
8dd\L
8dd-\
8cc\
8b-\J
24a/LL
24b-/
24a/JJ
8g/L
8g-/
8gn/J
=46
8a/L
8g/J}
4r
8r
{8a\L
8b-\
8cc\J
=47
12dd-\L
12ee-\
12dd-\J
8cc\L
8b\J
8b-\L
8a\
8cc\
8b-\J
=48
8a/L
8f/
8d-/
8B/J
4c/}
4r
=49
4r
8r
{[8a/
4a/_
8a/L]
16cc/L
16a/JJ
=50
8g/L
8f/J
2.g/}
==
*-
